X:176
T:O The Deep, Deep Love of Jesus
%%stretchlast false
M:8/4
L:1/4
K:G clef=C1
"^vi"[E,GBe]2 "^vi¹"[G,Be]2/3 "^I7"[G,Bf]2/3 "^I"[G,Bg]2/3 "^III"[B,B^df]2 "^IV"[CGe]2 | "^viiø7¹"[A,cef]2 "^III"[B,B^df]2/3 "^III+"[B,B^dg]2/3 [B,B^da]2/3 "^vi"[EBeg]3/2 "^vii7³"[EAef]/ "^vi"[EGBe]2 | "^I"[GBdb]2 "^V¹"[FAda]2/3 "^iii7²"[FAdb]2/3 "^IV¹"[EGec']2/3 "^III¹"[^DBfb]3/2 "^III7¹"[^DBfa]/ "^vi"[EBeg]2 | "^ii"[A,cea]3/2 "^vi"[A,Beg]/ "^III7"[B,A^df]2 "^vi"[EGe]4 | [E,GBe]2 "^vi¹"[G,Be]2/3 "^I7"[G,Bf]2/3 "^I"[G,Bg]2/3 "^III"[B,B^df]2 "^IV"[CGe]2 | "^viiø7¹"[A,cef]2 "^III"[B,B^df]2/3 "^III+"[B,B^dg]2/3 [B,B^da]2/3 "^vi"[EBeg]3/2 "^vii7³"[EAef]/ "^vi"[EGBe]2 | "^I"[GBdb]2 "^V¹"[FAda]2/3 "^iii7²"[FAdb]2/3 "^IV¹"[EGec']2/3 "^III¹"[^DBfb]3/2 "^III7¹"[^DBfa]/ "^vi"[EBeg]2 | "^ii"[A,cea]3/2 "^vi"[A,Beg]/ "^III7"[B,A^df]2 "^vi"[EGe]4 | "^I"[G,Gdb]2 "^I¹"[B,Gdg]2/3 [B,Gda]2/3 [B,Gdb]2/3 [DGda]2 "^V"[DFda]2 | "^vi"[EGBg]2 "^vi¹"[G,Be]2/3 [G,Bef]2/3 [G,Beg]2/3 [B,Bef]2 "^V/vi"[B,B^df]2 | "^vi"[Ee]2 "^vi7³"[DGBe]2/3 "^Imaj7²"[DGBf]2/3 "^I²"[DGBg]2/3 "^ii7¹"[CGea]2 "^V"[DFda]2 | "^vi"[EGBg] "^I²"[DGBg] "^ii¹"[CEea]2/3 "^IV"[CEeg]2/3 "^ii¹"[CEea]2/3 "^III"[B,F^db]4 | "^IV"[CEGe]2 "^vi¹"[G,Be]2/3 [G,Bef]2/3 [G,Beg]2/3 "^III"[B,B^df]2 "^IV"[CGe]2 | "^viiø7¹"[A,cef]2 "^III"[B,B^df]2/3 "^III+"[B,B^dg]2/3 [B,B^da]2/3 "^vi"[EBeg]3/2 "^vii7³"[EAef]/ "^vi"[EGe]2 | "^I"[Gdb]2 "^V"[DFda]2/3 "^I²"[DGdb]2/3 "^v7"[DAdc']2/3 "^I"[G,Gdb]3/2 "^V"[G,Fda]/ "^IV"[CEeg]2 | "^ii"[A,cea]3/2 "^vi"[A,Beg]/ "^III7"[B,A^df]2 "^vi"[EGe]4 |]
